;FLAVOR:Marlin
;TIME:2940
;Filament used: 2.48743m
;Layer height: 0.28
;MINX:193.959
;MINY:207.276
;MINZ:0.28
;MAXX:254.55
;MAXY:270.238
;MAXZ:12.32
;Generated with Creality Slicer 4.8.2-291
M140 S60
M105
M190 S60
M104 S200
M105
M109 S200
M82 ;absolute extrusion mode

G28 ;Home

G92 E0 ;Reset Extruder
G1 Z2.0 F3000 ;Move Z Axis up
G1 X10.1 Y20 Z0.28 F5000.0 ;Move to start position
G1 X10.1 Y200.0 Z0.28 F1500.0 E15 ;Draw the first line
G1 X10.4 Y200.0 Z0.28 F5000.0 ;Move to side a little
G1 X10.4 Y20 Z0.28 F1500.0 E30 ;Draw the second line
G92 E0 ;Reset Extruder
G1 Z2.0 F3000 ;Move Z Axis up

G92 E0
G92 E0
G1 F3600 E-5
;LAYER_COUNT:44
;LAYER:0
M107
G0 F6000 X197.167 Y210.531 Z0.28
;TYPE:SKIRT
G1 F3600 E0
G1 F1200 X197.856 Y209.895 E0.04366
G1 X198.596 Y209.319 E0.08733
G1 X199.383 Y208.809 E0.131
G1 X200.211 Y208.368 E0.17468
G1 X201.073 Y207.998 E0.21836
G1 X201.963 Y207.704 E0.262
G1 X202.875 Y207.486 E0.30567
G1 X203.803 Y207.347 E0.34936
G1 X204.66 Y207.289 E0.38936
G1 X204.98 Y207.28 E0.40426
G1 X205.289 Y207.276 E0.41865
G1 X238.352 Y207.276 E1.9582
G1 X239.123 Y207.286 E1.99411
G1 X240.431 Y207.384 E2.05518
G1 X240.846 Y207.44 E2.07468
G1 X241.769 Y207.605 E2.11834
G1 X242.675 Y207.848 E2.16202
G1 X243.557 Y208.167 E2.20569
G1 X244.229 Y208.47 E2.24002
G1 X244.471 Y208.589 E2.25258
G1 X245.294 Y209.038 E2.29623
G1 X246.076 Y209.556 E2.33991
G1 X246.811 Y210.139 E2.38359
G1 X247.297 Y210.585 E2.41431
G1 X247.539 Y210.821 E2.43005
G1 X248.182 Y211.504 E2.47373
G1 X248.764 Y212.239 E2.51738
G1 X249.4 Y213.222 E2.5719
G1 X249.435 Y213.283 E2.57517
G1 X249.753 Y213.878 E2.60659
G1 X249.85 Y214.074 E2.61677
G1 X250.23 Y214.931 E2.66042
G1 X250.535 Y215.818 E2.7041
G1 X250.821 Y217.024 E2.76181
G1 X250.99 Y217.973 E2.8067
G1 X251.025 Y218.182 E2.81657
G1 X251.185 Y219.194 E2.86427
G1 X251.648 Y221.662 E2.9812
G1 X252.186 Y224.141 E3.09932
G1 X252.787 Y226.578 E3.2162
G1 X253.455 Y228.994 E3.33292
G1 X253.929 Y230.537 E3.40808
G1 X254.095 Y231.103 E3.43554
G1 X254.321 Y232.014 E3.47925
G1 X254.468 Y232.94 E3.52291
G1 X254.535 Y233.866 E3.56614
G1 X254.545 Y234.196 E3.58151
G1 X254.55 Y234.529 E3.59702
G1 X254.549 Y258.638 E4.71964
G1 X254.54 Y259.365 E4.75349
G1 X254.489 Y260.302 E4.79719
G1 X254.357 Y261.23 E4.84083
G1 X254.148 Y262.144 E4.88449
G1 X253.861 Y263.037 E4.92817
G1 X253.499 Y263.903 E4.97187
G1 X253.065 Y264.734 E5.01553
G1 X252.561 Y265.525 E5.0592
G1 X251.992 Y266.27 E5.10285
G1 X251.361 Y266.965 E5.14656
G1 X250.674 Y267.603 E5.19022
G1 X249.935 Y268.18 E5.23388
G1 X249.149 Y268.692 E5.27756
G1 X248.323 Y269.135 E5.3212
G1 X247.461 Y269.507 E5.36492
G1 X246.572 Y269.803 E5.40855
G1 X245.66 Y270.023 E5.45223
G1 X244.733 Y270.164 E5.49589
G1 X243.849 Y270.225 E5.53715
G1 X243.528 Y270.234 E5.55211
G1 X243.22 Y270.238 E5.56645
G1 X209.994 Y270.237 E7.11359
G1 X209.386 Y270.228 E7.14191
G1 X208.078 Y270.13 E7.20298
G1 X207.663 Y270.074 E7.22248
G1 X206.74 Y269.909 E7.26614
G1 X205.834 Y269.666 E7.30982
G1 X204.952 Y269.347 E7.35349
G1 X204.28 Y269.044 E7.38782
G1 X204.038 Y268.925 E7.40038
G1 X203.215 Y268.476 E7.44403
G1 X202.433 Y267.958 E7.48771
G1 X201.698 Y267.375 E7.53139
G1 X201.212 Y266.929 E7.56211
G1 X200.97 Y266.693 E7.57785
G1 X200.327 Y266.01 E7.62153
G1 X199.745 Y265.275 E7.66518
G1 X199.09 Y264.26 E7.72143
G1 X199.053 Y264.195 E7.72491
G1 X198.754 Y263.632 E7.7546
G1 X198.658 Y263.438 E7.76467
G1 X198.278 Y262.58 E7.80837
G1 X197.973 Y261.693 E7.85205
G1 X197.686 Y260.478 E7.91018
G1 X197.48 Y259.308 E7.9655
G1 X197.324 Y258.32 E8.01207
G1 X196.861 Y255.853 E8.12895
G1 X196.323 Y253.373 E8.24712
G1 X195.728 Y250.959 E8.36289
G1 X195.052 Y248.516 E8.48092
G1 X194.578 Y246.972 E8.55612
G1 X194.412 Y246.405 E8.58363
G1 X194.187 Y245.494 E8.62733
G1 X194.041 Y244.568 E8.67098
G1 X193.974 Y243.648 E8.71393
G1 X193.964 Y243.319 E8.72926
G1 X193.959 Y242.985 E8.74481
G1 X193.96 Y218.803 E9.87083
G1 X193.97 Y218.123 E9.9025
G1 X194.024 Y217.187 E9.94615
G1 X194.157 Y216.259 E9.98981
G1 X194.369 Y215.345 E10.0335
G1 X194.658 Y214.453 E10.07716
G1 X195.022 Y213.588 E10.12085
G1 X195.458 Y212.758 E10.16451
G1 X195.964 Y211.968 E10.2082
G1 X196.535 Y211.224 E10.25187
G1 X197.167 Y210.531 E10.29554
G0 F6000 X197.558 Y210.706
G1 F1200 X198.244 Y210.091 E10.33844
G1 X198.98 Y209.539 E10.38128
G1 X199.762 Y209.052 E10.42418
G1 X200.583 Y208.635 E10.46705
G1 X201.436 Y208.291 E10.50988
G1 X202.317 Y208.022 E10.55277
G1 X203.218 Y207.831 E10.59566
G1 X204.131 Y207.718 E10.6385
G1 X204.671 Y207.689 E10.66368
G1 X204.991 Y207.68 E10.67858
G1 X205.289 Y207.676 E10.69246
G1 X238.352 Y207.676 E12.23201
G1 X239.117 Y207.686 E12.26764
G1 X240.378 Y207.78 E12.32652
G1 X240.793 Y207.836 E12.34602
G1 X241.699 Y207.999 E12.38888
G1 X242.587 Y208.239 E12.43172
G1 X243.452 Y208.556 E12.47461
G1 X244.052 Y208.829 E12.50531
G1 X244.294 Y208.948 E12.51786
G1 X245.102 Y209.39 E12.56075
G1 X245.869 Y209.9 E12.60364
G1 X246.588 Y210.475 E12.64651
G1 X247.018 Y210.871 E12.67373
G1 X247.26 Y211.107 E12.68947
G1 X247.89 Y211.778 E12.73233
G1 X248.46 Y212.501 E12.7752
G1 X249.053 Y213.421 E12.82616
G1 X249.088 Y213.482 E12.82944
G1 X249.394 Y214.055 E12.85969
G1 X249.491 Y214.251 E12.86987
G1 X249.863 Y215.093 E12.91273
G1 X250.161 Y215.965 E12.95564
G1 X250.427 Y217.095 E13.0097
G1 X250.63 Y218.244 E13.06403
G1 X250.791 Y219.259 E13.11188
G1 X251.257 Y221.748 E13.22979
G1 X251.795 Y224.223 E13.34773
G1 X252.397 Y226.667 E13.46494
G1 X253.074 Y229.112 E13.58307
G1 X253.546 Y230.65 E13.65798
G1 X253.712 Y231.216 E13.68545
G1 X253.932 Y232.11 E13.72832
G1 X254.074 Y233.019 E13.77116
G1 X254.135 Y233.878 E13.81126
G1 X254.145 Y234.208 E13.82663
G1 X254.15 Y234.529 E13.84158
G1 X254.149 Y258.633 E14.96396
G1 X254.14 Y259.36 E14.99782
G1 X254.089 Y260.279 E15.04067
G1 X253.958 Y261.191 E15.08358
G1 X253.748 Y262.087 E15.12643
G1 X253.462 Y262.962 E15.16929
G1 X253.101 Y263.809 E15.21217
G1 X252.667 Y264.621 E15.25504
G1 X252.165 Y265.393 E15.29792
G1 X251.597 Y266.118 E15.3408
G1 X250.969 Y266.791 E15.38367
G1 X250.285 Y267.407 E15.42653
G1 X249.55 Y267.961 E15.46939
G1 X248.77 Y268.45 E15.51225
G1 X247.95 Y268.869 E15.55513
G1 X247.097 Y269.215 E15.59799
G1 X246.217 Y269.486 E15.64087
G1 X245.317 Y269.679 E15.68373
G1 X244.403 Y269.794 E15.72663
G1 X243.838 Y269.825 E15.75297
G1 X243.517 Y269.834 E15.76793
G1 X243.22 Y269.838 E15.78176
G1 X210 Y269.837 E17.32862
G1 X209.392 Y269.828 E17.35693
G1 X208.131 Y269.734 E17.41581
G1 X207.716 Y269.678 E17.43531
G1 X206.81 Y269.515 E17.47818
G1 X205.922 Y269.275 E17.52101
G1 X205.057 Y268.958 E17.56391
G1 X204.457 Y268.685 E17.5946
G1 X204.215 Y268.566 E17.60716
G1 X203.407 Y268.124 E17.65005
G1 X202.64 Y267.614 E17.69293
G1 X201.921 Y267.039 E17.7358
G1 X201.491 Y266.643 E17.76302
G1 X201.249 Y266.407 E17.77876
G1 X200.619 Y265.736 E17.82162
G1 X200.049 Y265.013 E17.86449
G1 X199.438 Y264.062 E17.91713
G1 X199.401 Y263.997 E17.92061
G1 X199.113 Y263.454 E17.94923
G1 X199.017 Y263.26 E17.95931
G1 X198.644 Y262.418 E18.00219
G1 X198.347 Y261.547 E18.04504
G1 X198.079 Y260.408 E18.09953
G1 X197.907 Y259.437 E18.14544
G1 X197.719 Y258.262 E18.20085
G1 X197.25 Y255.76 E18.31938
G1 X196.716 Y253.298 E18.43669
G1 X196.11 Y250.838 E18.55466
G1 X195.441 Y248.42 E18.67149
G1 X194.962 Y246.859 E18.74752
G1 X194.796 Y246.292 E18.77503
G1 X194.576 Y245.398 E18.8179
G1 X194.434 Y244.489 E18.86074
G1 X194.374 Y243.636 E18.90056
G1 X194.364 Y243.307 E18.91588
G1 X194.359 Y242.985 E18.93088
G1 X194.36 Y218.809 E20.05661
G1 X194.37 Y218.129 E20.08828
G1 X194.424 Y217.21 E20.13115
G1 X194.557 Y216.299 E20.17402
G1 X194.768 Y215.403 E20.21688
G1 X195.057 Y214.529 E20.25974
G1 X195.42 Y213.683 E20.30261
G1 X195.856 Y212.872 E20.34549
G1 X196.36 Y212.101 E20.38838
G1 X196.929 Y211.378 E20.43122
G1 X197.558 Y210.706 E20.47408
G0 F6000 X197.95 Y210.884
G1 F1200 X198.632 Y210.293 E20.5161
G1 X199.364 Y209.763 E20.55818
G1 X200.139 Y209.301 E20.60019
G1 X200.953 Y208.909 E20.64226
G1 X201.798 Y208.59 E20.68432
G1 X202.668 Y208.348 E20.72637
G1 X203.556 Y208.183 E20.76843
G1 X204.682 Y208.089 E20.82104
G1 X205.002 Y208.08 E20.83595
G1 X205.289 Y208.076 E20.84931
G1 X238.352 Y208.076 E22.38886
G1 X239.111 Y208.086 E22.42421
G1 X240.324 Y208.177 E22.48085
G1 X240.739 Y208.233 E22.50035
G1 X241.628 Y208.393 E22.54241
G1 X242.499 Y208.631 E22.58445
G1 X243.346 Y208.946 E22.62653
G1 X243.876 Y209.188 E22.65366
G1 X244.118 Y209.307 E22.66622
G1 X244.91 Y209.741 E22.70827
G1 X245.66 Y210.243 E22.7503
G1 X246.364 Y210.81 E22.79239
G1 X246.738 Y211.158 E22.81618
G1 X246.98 Y211.394 E22.83192
G1 X247.598 Y212.052 E22.87395
G1 X248.156 Y212.763 E22.91603
G1 X248.706 Y213.62 E22.96345
G1 X248.741 Y213.681 E22.96673
G1 X249.036 Y214.233 E22.99587
G1 X249.133 Y214.429 E23.00605
G1 X249.497 Y215.255 E23.04808
G1 X249.787 Y216.11 E23.09012
G1 X250.033 Y217.165 E23.14057
G1 X250.202 Y218.114 E23.18545
G1 X250.395 Y219.324 E23.24251
G1 X250.859 Y221.801 E23.35985
G1 X251.407 Y224.324 E23.48007
G1 X252.011 Y226.772 E23.59748
G1 X252.682 Y229.199 E23.71473
G1 X253.162 Y230.762 E23.79087
G1 X253.328 Y231.328 E23.81833
G1 X253.543 Y232.205 E23.86038
G1 X253.68 Y233.098 E23.90245
G1 X253.735 Y233.89 E23.93941
G1 X253.745 Y234.22 E23.95479
G1 X253.75 Y234.529 E23.96918
G1 X253.749 Y258.628 E25.09133
G1 X253.74 Y259.355 E25.12518
G1 X253.689 Y260.257 E25.16725
G1 X253.558 Y261.151 E25.20932
G1 X253.349 Y262.029 E25.25135
G1 X253.063 Y262.886 E25.29342
G1 X252.702 Y263.714 E25.33548
G1 X252.27 Y264.506 E25.37749
G1 X251.769 Y265.258 E25.41956
G1 X251.203 Y265.962 E25.46162
G1 X250.578 Y266.613 E25.50365
G1 X249.897 Y267.207 E25.54572
G1 X249.166 Y267.738 E25.58779
G1 X248.392 Y268.202 E25.62982
G1 X247.579 Y268.596 E25.67188
G1 X246.735 Y268.916 E25.71391
G1 X245.865 Y269.161 E25.756
G1 X244.978 Y269.327 E25.79802
G1 X243.827 Y269.425 E25.85181
G1 X243.506 Y269.434 E25.86676
G1 X243.22 Y269.438 E25.88008
G1 X210.006 Y269.437 E27.42666
G1 X209.398 Y269.428 E27.45498
G1 X208.185 Y269.337 E27.51162
G1 X207.77 Y269.281 E27.53112
G1 X206.881 Y269.121 E27.57318
G1 X206.01 Y268.883 E27.61522
G1 X205.163 Y268.568 E27.6573
G1 X204.633 Y268.326 E27.68443
G1 X204.391 Y268.207 E27.69699
G1 X203.599 Y267.773 E27.73904
G1 X202.849 Y267.271 E27.78107
G1 X202.145 Y266.704 E27.82316
G1 X201.771 Y266.356 E27.84695
G1 X201.529 Y266.12 E27.86269
G1 X200.911 Y265.462 E27.90472
G1 X200.353 Y264.751 E27.9468
G1 X199.786 Y263.864 E27.99582
G1 X199.749 Y263.799 E27.99931
G1 X199.471 Y263.277 E28.02685
G1 X199.375 Y263.083 E28.03692
G1 X199.011 Y262.256 E28.079
G1 X198.721 Y261.401 E28.12104
G1 X198.473 Y260.338 E28.17187
G1 X198.27 Y259.183 E28.22647
G1 X198.108 Y258.157 E28.27484
G1 X197.648 Y255.706 E28.39096
G1 X197.104 Y253.197 E28.5105
G1 X196.504 Y250.765 E28.62714
G1 X195.816 Y248.279 E28.74725
G1 X195.346 Y246.747 E28.82187
G1 X195.18 Y246.18 E28.84938
G1 X194.965 Y245.303 E28.89143
G1 X194.828 Y244.41 E28.9335
G1 X194.774 Y243.624 E28.97018
G1 X194.764 Y243.295 E28.98551
G1 X194.759 Y242.985 E28.99994
G1 X194.76 Y218.815 E30.1254
G1 X194.77 Y218.135 E30.15707
G1 X194.823 Y217.233 E30.19914
G1 X194.956 Y216.34 E30.24118
G1 X195.167 Y215.462 E30.28323
G1 X195.456 Y214.606 E30.3253
G1 X195.818 Y213.779 E30.36734
G1 X196.253 Y212.987 E30.40941
G1 X196.755 Y212.237 E30.45143
G1 X197.323 Y211.534 E30.49352
G1 X197.95 Y210.884 E30.53557
G1 F3600 E25.53557
;MESH:2 ?????????????????? ????????????.STL(1)
G0 F6000 X235.041 Y223.453
G0 X233.603 Y223.703
G0 X234.541 Y225.008
;TYPE:WALL-INNER
G1 F3600 E30.53557
G1 F1200 X234.856 Y225.238 E30.55373
G1 X235.204 Y225.414 E30.57189
G1 X235.578 Y225.526 E30.59007
G1 X235.963 Y225.577 E30.60816
G1 X236.356 Y225.56 E30.62647
G1 X236.737 Y225.477 E30.64463
G1 X237.101 Y225.33 E30.66291
G1 X237.431 Y225.124 E30.68102
G1 X237.724 Y224.867 E30.69917
G1 X237.969 Y224.56 E30.71746
G1 X238.158 Y224.22 E30.73557
G1 X238.287 Y223.853 E30.75369
G1 X238.353 Y223.469 E30.77183
G1 X238.353 Y223.077 E30.79008
G1 X238.285 Y222.692 E30.80829
G1 X238.156 Y222.324 E30.82645
G1 X237.964 Y221.983 E30.84467
G1 X237.718 Y221.68 E30.86284
G1 X237.424 Y221.424 E30.88099
G1 X237.092 Y221.219 E30.89916
G1 X236.729 Y221.075 E30.91735
G1 X236.348 Y220.993 E30.93549
G1 X235.957 Y220.976 E30.95372
G1 X235.569 Y221.028 E30.97195
G1 X235.197 Y221.142 E30.99006
G1 X234.849 Y221.318 E31.00822
G1 X234.535 Y221.55 E31.0264
G1 X234.266 Y221.833 E31.04458
G1 X234.048 Y222.157 E31.06277
G1 X233.887 Y222.514 E31.081
G1 X233.79 Y222.89 E31.09908
G1 X233.756 Y223.28 E31.11731
G1 X233.792 Y223.67 E31.13555
G1 X233.89 Y224.047 E31.15369
G1 X234.052 Y224.403 E31.1719
G1 X234.271 Y224.724 E31.18999
G1 X234.541 Y225.008 E31.20824
G0 F6000 X234.806 Y224.706
;TYPE:WALL-OUTER
G1 F1200 X235.066 Y224.896 E31.22324
G1 X235.353 Y225.041 E31.23821
G1 X235.662 Y225.134 E31.25324
G1 X235.981 Y225.176 E31.26822
G1 X236.304 Y225.162 E31.28327
G1 X236.619 Y225.093 E31.29829
G1 X236.919 Y224.972 E31.31335
G1 X237.192 Y224.802 E31.32832
G1 X237.434 Y224.59 E31.34331
G1 X237.636 Y224.337 E31.35838
G1 X237.792 Y224.056 E31.37335
G1 X237.898 Y223.752 E31.38834
G1 X237.953 Y223.435 E31.40332
G1 X237.953 Y223.112 E31.41836
G1 X237.897 Y222.794 E31.43339
G1 X237.79 Y222.49 E31.4484
G1 X237.632 Y222.209 E31.46341
G1 X237.429 Y221.959 E31.47841
G1 X237.186 Y221.747 E31.49342
G1 X236.912 Y221.578 E31.50841
G1 X236.612 Y221.459 E31.52344
G1 X236.297 Y221.391 E31.53845
G1 X235.975 Y221.377 E31.55346
G1 X235.655 Y221.42 E31.56849
G1 X235.347 Y221.514 E31.58349
G1 X235.06 Y221.66 E31.59848
G1 X234.801 Y221.851 E31.61346
G1 X234.579 Y222.084 E31.62845
G1 X234.399 Y222.352 E31.64348
G1 X234.266 Y222.647 E31.65855
G1 X234.186 Y222.958 E31.6735
G1 X234.158 Y223.279 E31.68851
G1 X234.187 Y223.601 E31.70356
G1 X234.268 Y223.913 E31.71857
G1 X234.402 Y224.206 E31.73357
G1 X234.583 Y224.472 E31.74855
G1 X234.806 Y224.706 E31.76361
G0 F6000 X234.516 Y225.036
G1 F3600 E26.76361
G0 F6000 X233.885 Y224.497
G0 X235.158 Y223.781
G0 X227.059 Y223.536
G0 X228.472 Y223.901
G0 X227.335 Y224.995
G0 X226.689 Y225.323
G0 X225.971 Y225.416
G0 X225.572 Y225.331
G0 X224.541 Y225.008
;TYPE:WALL-INNER
G1 F3600 E31.76361
G1 F1200 X224.856 Y225.238 E31.78177
G1 X225.204 Y225.414 E31.79993
G1 X225.578 Y225.526 E31.81811
G1 X225.963 Y225.577 E31.83619
G1 X226.356 Y225.56 E31.85451
G1 X226.737 Y225.477 E31.87266
G1 X227.101 Y225.33 E31.89094
G1 X227.431 Y225.124 E31.90906
G1 X227.724 Y224.867 E31.92721
G1 X227.969 Y224.56 E31.94549
G1 X228.158 Y224.22 E31.96361
G1 X228.287 Y223.853 E31.98172
G1 X228.353 Y223.469 E31.99986
G1 X228.353 Y223.077 E32.01812
G1 X228.285 Y222.692 E32.03632
G1 X228.156 Y222.324 E32.05448
G1 X227.964 Y221.983 E32.0727
G1 X227.718 Y221.68 E32.09088
G1 X227.424 Y221.424 E32.10903
G1 X227.092 Y221.219 E32.1272
G1 X226.729 Y221.075 E32.14538
G1 X226.348 Y220.993 E32.16353
G1 X225.957 Y220.976 E32.18175
G1 X225.569 Y221.028 E32.19998
G1 X225.197 Y221.142 E32.2181
G1 X224.849 Y221.318 E32.23626
G1 X224.535 Y221.55 E32.25444
G1 X224.266 Y221.833 E32.27262
G1 X224.048 Y222.157 E32.2908
G1 X223.887 Y222.514 E32.30904
G1 X223.79 Y222.89 E32.32712
G1 X223.756 Y223.28 E32.34535
G1 X223.792 Y223.67 E32.36358
G1 X223.89 Y224.047 E32.38172
G1 X224.052 Y224.403 E32.39994
G1 X224.271 Y224.724 E32.41803
G1 X224.541 Y225.008 E32.43628
G0 F6000 X224.806 Y224.706
;TYPE:WALL-OUTER
G1 F1200 X225.066 Y224.896 E32.45127
G1 X225.353 Y225.041 E32.46624
G1 X225.662 Y225.134 E32.48127
G1 X225.981 Y225.176 E32.49625
G1 X226.304 Y225.162 E32.51131
G1 X226.619 Y225.093 E32.52632
G1 X226.919 Y224.972 E32.54138
G1 X227.192 Y224.802 E32.55636
G1 X227.434 Y224.59 E32.57134
G1 X227.636 Y224.337 E32.58642
G1 X227.792 Y224.056 E32.60138
G1 X227.898 Y223.752 E32.61637
G1 X227.953 Y223.435 E32.63135
G1 X227.953 Y223.112 E32.64639
G1 X227.897 Y222.794 E32.66143
G1 X227.79 Y222.49 E32.67644
G1 X227.632 Y222.209 E32.69145
G1 X227.429 Y221.959 E32.70644
G1 X227.186 Y221.747 E32.72146
G1 X226.912 Y221.578 E32.73645
G1 X226.612 Y221.459 E32.75148
G1 X226.297 Y221.391 E32.76648
G1 X225.975 Y221.377 E32.78149
