;FLAVOR:Marlin
;TIME:2805
;Filament used: 2.38346m
;Layer height: 0.28
;MINX:196.4
;MINY:199.247
;MINZ:0.28
;MAXX:256.093
;MAXY:261.667
;MAXZ:12.32
;Generated with Creality Slicer 4.8.2-291
M140 S60
M105
M190 S60
M104 S200
M105
M109 S200
M82 ;absolute extrusion mode

G28 ;Home

G92 E0 ;Reset Extruder
G1 Z2.0 F3000 ;Move Z Axis up
G1 X10.1 Y20 Z0.28 F5000.0 ;Move to start position
G1 X10.1 Y200.0 Z0.28 F1500.0 E15 ;Draw the first line
G1 X10.4 Y200.0 Z0.28 F5000.0 ;Move to side a little
G1 X10.4 Y20 Z0.28 F1500.0 E30 ;Draw the second line
G92 E0 ;Reset Extruder
G1 Z2.0 F3000 ;Move Z Axis up

G92 E0
G92 E0
G1 F3600 E-5
;LAYER_COUNT:44
;LAYER:0
M107
G0 F6000 X200.447 Y202.756 Z0.28
;TYPE:SKIRT
G1 F3600 E0
G1 F1200 X201.131 Y202.114 E0.04368
G1 X201.867 Y201.533 E0.08734
G1 X202.65 Y201.016 E0.13103
G1 X203.243 Y200.685 E0.16266
G1 X203.509 Y200.547 E0.17661
G1 X204.36 Y200.151 E0.22032
G1 X205.24 Y199.829 E0.26395
G1 X206.145 Y199.583 E0.30762
G1 X206.732 Y199.466 E0.33549
G1 X207.038 Y199.414 E0.34994
G1 X207.969 Y199.297 E0.39364
G1 X208.538 Y199.264 E0.42018
G1 X208.891 Y199.253 E0.43662
G1 X209.367 Y199.249 E0.45879
G1 X210.029 Y199.257 E0.48961
G1 X211.016 Y199.313 E0.53565
G1 X211.157 Y199.327 E0.54225
G1 X213.682 Y199.54 E0.66024
G1 X216.214 Y199.681 E0.77832
G1 X218.73 Y199.75 E0.89552
G1 X221.252 Y199.748 E1.01295
G1 X223.748 Y199.675 E1.12923
G1 X226.281 Y199.529 E1.24737
G1 X227.653 Y199.411 E1.31149
G1 X227.822 Y199.404 E1.31937
G1 X229.059 Y199.297 E1.37718
G1 X229.694 Y199.26 E1.4068
G1 X230.013 Y199.251 E1.42166
G1 X230.323 Y199.247 E1.4361
G1 X244.386 Y199.247 E2.09093
G1 X245.226 Y199.257 E2.13005
G1 X246.162 Y199.309 E2.1737
G1 X247.091 Y199.441 E2.21739
G1 X248.005 Y199.651 E2.26106
G1 X248.898 Y199.938 E2.30474
G1 X249.763 Y200.301 E2.34842
G1 X250.594 Y200.735 E2.39207
G1 X251.385 Y201.239 E2.43575
G1 X252.13 Y201.809 E2.47942
G1 X252.824 Y202.44 E2.5231
G1 X253.461 Y203.127 E2.56673
G1 X254.038 Y203.867 E2.61042
G1 X254.55 Y204.653 E2.6541
G1 X254.993 Y205.48 E2.69779
G1 X255.364 Y206.341 E2.74144
G1 X255.66 Y207.231 E2.78511
G1 X255.879 Y208.143 E2.82879
G1 X256.02 Y209.07 E2.87245
G1 X256.08 Y209.948 E2.91343
G1 X256.089 Y210.269 E2.92838
G1 X256.093 Y210.577 E2.94272
G1 X256.092 Y234.736 E4.06767
G1 X256.082 Y235.433 E4.10013
G1 X256.044 Y236.201 E4.13593
G1 X255.823 Y238.818 E4.25822
G1 X255.681 Y241.307 E4.37431
G1 X255.608 Y243.885 E4.4944
G1 X255.599 Y245.206 E4.55591
G1 X255.599 Y249.122 E4.73826
G1 X255.59 Y249.731 E4.76662
G1 X255.492 Y251.038 E4.82765
G1 X255.437 Y251.446 E4.84682
G1 X255.273 Y252.369 E4.89047
G1 X255.03 Y253.275 E4.93415
G1 X254.711 Y254.157 E4.97782
G1 X254.453 Y254.735 E5.0073
G1 X254.346 Y254.958 E5.01882
G1 X253.98 Y255.657 E5.05556
G1 X253.956 Y255.699 E5.05781
G1 X253.456 Y256.492 E5.10146
G1 X252.891 Y257.241 E5.14515
G1 X252.346 Y257.853 E5.18331
G1 X252.207 Y257.998 E5.19266
G1 X251.938 Y258.269 E5.21044
G1 X251.863 Y258.342 E5.21531
G1 X251.164 Y258.966 E5.25894
G1 X250.414 Y259.53 E5.30264
G1 X249.323 Y260.188 E5.36197
G1 X249.05 Y260.332 E5.37634
G1 X248.203 Y260.734 E5.41999
G1 X247.324 Y261.062 E5.46368
G1 X246.421 Y261.315 E5.50735
G1 X245.761 Y261.448 E5.5387
G1 X245.455 Y261.5 E5.55315
G1 X244.524 Y261.617 E5.59684
G1 X243.955 Y261.65 E5.62338
G1 X243.602 Y261.661 E5.63983
G1 X243.126 Y261.665 E5.66199
G1 X242.464 Y261.657 E5.69282
G1 X241.477 Y261.601 E5.73885
G1 X241.336 Y261.587 E5.74545
G1 X238.811 Y261.374 E5.86344
G1 X236.279 Y261.233 E5.98153
G1 X233.763 Y261.164 E6.09873
G1 X231.241 Y261.166 E6.21616
G1 X228.745 Y261.239 E6.33243
G1 X226.212 Y261.385 E6.45058
G1 X224.84 Y261.503 E6.5147
G1 X224.671 Y261.51 E6.52258
G1 X223.434 Y261.617 E6.58039
G1 X222.799 Y261.654 E6.61001
G1 X222.48 Y261.663 E6.62487
G1 X222.17 Y261.667 E6.6393
G1 X207.965 Y261.666 E7.30075
G1 X207.267 Y261.657 E7.33325
G1 X206.331 Y261.605 E7.3769
G1 X205.402 Y261.473 E7.4206
G1 X204.488 Y261.263 E7.46427
G1 X203.595 Y260.976 E7.50794
G1 X202.73 Y260.613 E7.55162
G1 X201.899 Y260.179 E7.59528
G1 X201.108 Y259.675 E7.63895
G1 X200.363 Y259.105 E7.68263
G1 X199.669 Y258.474 E7.72631
G1 X199.032 Y257.787 E7.76993
G1 X198.455 Y257.047 E7.81363
G1 X197.943 Y256.261 E7.85731
G1 X197.5 Y255.434 E7.90099
G1 X197.129 Y254.573 E7.94465
G1 X196.833 Y253.683 E7.98832
G1 X196.614 Y252.771 E8.03199
G1 X196.473 Y251.844 E8.07566
G1 X196.413 Y250.953 E8.11724
G1 X196.404 Y250.618 E8.13284
G1 X196.4 Y250.323 E8.14658
G1 X196.401 Y226.178 E9.27087
G1 X196.411 Y225.48 E9.30338
G1 X196.449 Y224.712 E9.33918
G1 X196.67 Y222.096 E9.46143
G1 X196.812 Y219.607 E9.57752
G1 X196.885 Y217.029 E9.69761
G1 X196.894 Y215.708 E9.75912
G1 X196.894 Y211.793 E9.94142
G1 X196.903 Y211.183 E9.96982
G1 X197.001 Y209.871 E10.03109
G1 X197.057 Y209.457 E10.05054
G1 X197.222 Y208.533 E10.09425
G1 X197.466 Y207.628 E10.13789
G1 X197.785 Y206.746 E10.18156
G1 X198.096 Y206.059 E10.21668
G1 X198.219 Y205.81 E10.22961
G1 X198.669 Y204.988 E10.27325
G1 X199.189 Y204.207 E10.31694
G1 X199.773 Y203.473 E10.36061
G1 X200.219 Y202.989 E10.39126
G1 X200.447 Y202.756 E10.40644
G0 F6000 X200.733 Y203.035
G1 F1200 X201.405 Y202.406 E10.4493
G1 X202.129 Y201.837 E10.49218
G1 X202.899 Y201.333 E10.53503
G1 X203.428 Y201.04 E10.56319
G1 X203.694 Y200.902 E10.57714
G1 X204.528 Y200.514 E10.61997
G1 X205.394 Y200.2 E10.66287
G1 X206.283 Y199.962 E10.70572
G1 X206.799 Y199.861 E10.7302
G1 X207.105 Y199.809 E10.74466
G1 X208.019 Y199.694 E10.78755
G1 X208.551 Y199.664 E10.81236
G1 X208.904 Y199.653 E10.82881
G1 X209.362 Y199.649 E10.85014
G1 X210.024 Y199.657 E10.88096
G1 X210.975 Y199.711 E10.92532
G1 X211.084 Y199.722 E10.93042
G1 X213.696 Y199.942 E11.05248
G1 X216.182 Y200.081 E11.16841
G1 X218.719 Y200.15 E11.28659
G1 X221.264 Y200.148 E11.4051
G1 X223.747 Y200.075 E11.52077
G1 X226.302 Y199.929 E11.63993
G1 X227.687 Y199.809 E11.70466
G1 X227.853 Y199.802 E11.7124
G1 X229.094 Y199.695 E11.7704
G1 X229.705 Y199.66 E11.7989
G1 X230.024 Y199.651 E11.81376
G1 X230.323 Y199.647 E11.82768
G1 X244.386 Y199.647 E12.48252
G1 X245.221 Y199.657 E12.5214
G1 X246.14 Y199.709 E12.56426
G1 X247.051 Y199.84 E12.60712
G1 X247.947 Y200.05 E12.64997
G1 X248.822 Y200.337 E12.69285
G1 X249.669 Y200.699 E12.73574
G1 X250.481 Y201.133 E12.77861
G1 X251.252 Y201.635 E12.82145
G1 X251.977 Y202.203 E12.86434
G1 X252.65 Y202.832 E12.90723
G1 X253.265 Y203.516 E12.95006
G1 X253.819 Y204.251 E12.99292
G1 X254.307 Y205.032 E13.0358
G1 X254.726 Y205.852 E13.07868
G1 X255.072 Y206.705 E13.12154
G1 X255.342 Y207.585 E13.1644
G1 X255.535 Y208.486 E13.20731
G1 X255.649 Y209.399 E13.25015
G1 X255.68 Y209.959 E13.27627
G1 X255.689 Y210.28 E13.29122
G1 X255.693 Y210.577 E13.30505
G1 X255.692 Y234.73 E14.42972
G1 X255.682 Y235.427 E14.46218
G1 X255.645 Y236.167 E14.49668
G1 X255.426 Y238.761 E14.61789
G1 X255.281 Y241.307 E14.73664
G1 X255.208 Y243.871 E14.85608
G1 X255.199 Y245.203 E14.9181
G1 X255.199 Y249.116 E15.10031
G1 X255.19 Y249.725 E15.12867
G1 X255.096 Y250.984 E15.18746
G1 X255.041 Y251.392 E15.20663
G1 X254.878 Y252.298 E15.24949
G1 X254.638 Y253.187 E15.29237
G1 X254.321 Y254.051 E15.33522
G1 X254.093 Y254.562 E15.36128
G1 X253.986 Y254.785 E15.3728
G1 X253.632 Y255.458 E15.4082
G1 X253.608 Y255.5 E15.41046
G1 X253.117 Y256.279 E15.45333
G1 X252.561 Y257.012 E15.49617
G1 X252.057 Y257.576 E15.53139
G1 X251.918 Y257.721 E15.54075
G1 X251.659 Y257.982 E15.55787
G1 X251.584 Y258.055 E15.56274
G1 X250.897 Y258.668 E15.60562
G1 X250.16 Y259.219 E15.64846
G1 X249.136 Y259.835 E15.70411
G1 X248.863 Y259.979 E15.71848
G1 X248.031 Y260.372 E15.76133
G1 X247.168 Y260.692 E15.80418
G1 X246.28 Y260.936 E15.84707
G1 X245.694 Y261.053 E15.87489
G1 X245.388 Y261.105 E15.88934
G1 X244.474 Y261.22 E15.93224
G1 X243.942 Y261.25 E15.95705
G1 X243.589 Y261.261 E15.9735
G1 X243.131 Y261.265 E15.99482
G1 X242.469 Y261.257 E16.02565
G1 X241.518 Y261.203 E16.07
G1 X241.409 Y261.192 E16.07511
G1 X238.797 Y260.972 E16.19716
G1 X236.311 Y260.833 E16.3131
G1 X233.774 Y260.764 E16.43128
G1 X231.229 Y260.766 E16.54978
G1 X228.746 Y260.839 E16.66545
G1 X226.191 Y260.985 E16.78462
G1 X224.806 Y261.105 E16.84935
G1 X224.64 Y261.112 E16.85709
G1 X223.399 Y261.219 E16.91509
G1 X222.788 Y261.254 E16.94359
G1 X222.469 Y261.263 E16.95845
G1 X222.17 Y261.267 E16.97237
G1 X207.97 Y261.266 E17.63358
G1 X207.272 Y261.257 E17.66609
G1 X206.353 Y261.205 E17.70895
G1 X205.442 Y261.074 E17.7518
G1 X204.546 Y260.864 E17.79466
G1 X203.671 Y260.577 E17.83753
G1 X202.824 Y260.215 E17.88043
G1 X202.012 Y259.781 E17.9233
G1 X201.241 Y259.279 E17.96614
G1 X200.516 Y258.711 E18.00902
G1 X199.843 Y258.082 E18.05192
G1 X199.228 Y257.398 E18.09475
G1 X198.674 Y256.663 E18.13761
G1 X198.186 Y255.882 E18.18049
G1 X197.767 Y255.062 E18.22337
G1 X197.421 Y254.209 E18.26623
G1 X197.151 Y253.329 E18.30909
G1 X196.958 Y252.428 E18.352
G1 X196.844 Y251.515 E18.39484
G1 X196.813 Y250.943 E18.42151
G1 X196.804 Y250.608 E18.43712
G1 X196.8 Y250.323 E18.45039
G1 X196.801 Y226.184 E19.5744
G1 X196.811 Y225.486 E19.60691
G1 X196.848 Y224.746 E19.64141
G1 X197.067 Y222.153 E19.76258
G1 X197.212 Y219.607 E19.88133
G1 X197.285 Y217.043 E20.00076
G1 X197.294 Y215.711 E20.06279
G1 X197.294 Y211.799 E20.24495
G1 X197.303 Y211.189 E20.27336
G1 X197.398 Y209.924 E20.33243
G1 X197.454 Y209.51 E20.35188
G1 X197.617 Y208.604 E20.39474
G1 X197.857 Y207.715 E20.43762
G1 X198.175 Y206.851 E20.48049
G1 X198.454 Y206.236 E20.51194
G1 X198.577 Y205.987 E20.52487
G1 X199.02 Y205.18 E20.56774
G1 X199.532 Y204.415 E20.6106
G1 X200.108 Y203.697 E20.65346
G1 X200.505 Y203.268 E20.68068
G1 X200.733 Y203.035 E20.69586
G0 F6000 X201.019 Y203.315
G1 F1200 X201.678 Y202.698 E20.73789
G1 X202.39 Y202.142 E20.77996
G1 X203.148 Y201.651 E20.82201
G1 X203.612 Y201.395 E20.84669
G1 X203.878 Y201.257 E20.86064
G1 X204.697 Y200.877 E20.90268
G1 X205.547 Y200.571 E20.94475
G1 X206.42 Y200.341 E20.98679
G1 X206.866 Y200.255 E21.00794
G1 X207.172 Y200.203 E21.02239
G1 X208.068 Y200.091 E21.06444
G1 X208.563 Y200.064 E21.08752
G1 X208.916 Y200.053 E21.10396
G1 X209.357 Y200.049 E21.1245
G1 X210.019 Y200.057 E21.15533
G1 X210.934 Y200.109 E21.198
G1 X211.061 Y200.122 E21.20395
G1 X213.641 Y200.339 E21.32451
G1 X216.184 Y200.481 E21.4431
G1 X218.709 Y200.55 E21.56072
G1 X221.241 Y200.548 E21.67862
G1 X223.817 Y200.473 E21.79862
G1 X226.323 Y200.329 E21.91551
G1 X227.721 Y200.208 E21.98085
G1 X227.886 Y200.201 E21.98854
G1 X229.128 Y200.094 E22.04658
G1 X229.716 Y200.06 E22.07401
G1 X230.035 Y200.051 E22.08887
G1 X230.323 Y200.047 E22.10228
G1 X244.386 Y200.047 E22.75711
G1 X245.216 Y200.057 E22.79576
G1 X246.117 Y200.108 E22.83778
G1 X247.011 Y200.24 E22.87986
G1 X247.889 Y200.449 E22.92189
G1 X248.746 Y200.736 E22.96397
G1 X249.573 Y201.097 E23.00599
G1 X250.366 Y201.53 E23.04806
G1 X251.117 Y202.031 E23.0901
G1 X251.821 Y202.597 E23.13216
G1 X252.472 Y203.223 E23.17422
G1 X253.065 Y203.904 E23.21626
G1 X253.595 Y204.635 E23.25831
G1 X254.059 Y205.41 E23.30037
G1 X254.453 Y206.223 E23.34244
G1 X254.773 Y207.067 E23.38447
G1 X255.017 Y207.937 E23.42654
G1 X255.183 Y208.825 E23.46861
G1 X255.28 Y209.97 E23.52211
G1 X255.289 Y210.291 E23.53707
G1 X255.293 Y210.577 E23.55038
G1 X255.292 Y234.724 E24.67477
G1 X255.282 Y235.421 E24.70723
G1 X255.247 Y236.133 E24.74042
G1 X255.024 Y238.775 E24.86388
G1 X254.881 Y241.274 E24.98044
G1 X254.808 Y243.857 E25.10076
G1 X254.799 Y245.201 E25.16334
G1 X254.799 Y249.11 E25.34536
G1 X254.79 Y249.719 E25.37372
G1 X254.7 Y250.931 E25.43031
G1 X254.645 Y251.339 E25.44948
G1 X254.484 Y252.227 E25.49151
G1 X254.246 Y253.099 E25.5336
G1 X253.932 Y253.945 E25.57562
G1 X253.732 Y254.389 E25.59829
G1 X253.625 Y254.612 E25.60981
G1 X253.285 Y255.26 E25.64388
G1 X253.261 Y255.302 E25.64614
G1 X252.779 Y256.065 E25.68816
G1 X252.231 Y256.783 E25.73022
G1 X251.768 Y257.3 E25.76253
G1 X251.629 Y257.445 E25.77189
G1 X251.305 Y257.768 E25.79319
G1 X250.631 Y258.369 E25.83524
G1 X249.906 Y258.908 E25.87731
G1 X248.95 Y259.481 E25.9292
G1 X248.677 Y259.625 E25.94358
G1 X247.86 Y260.01 E25.98563
G1 X247.013 Y260.322 E26.02766
G1 X246.141 Y260.558 E26.06973
G1 X245.627 Y260.659 E26.09412
G1 X245.321 Y260.711 E26.10857
G1 X244.425 Y260.823 E26.15062
G1 X243.93 Y260.85 E26.1737
G1 X243.577 Y260.861 E26.19015
G1 X243.136 Y260.865 E26.21068
G1 X242.474 Y260.857 E26.24151
G1 X241.559 Y260.805 E26.28419
G1 X241.432 Y260.792 E26.29013
G1 X238.852 Y260.575 E26.41069
G1 X236.309 Y260.433 E26.52929
G1 X233.784 Y260.364 E26.64691
G1 X231.252 Y260.366 E26.76481
G1 X228.676 Y260.441 E26.88481
G1 X226.17 Y260.585 E27.00169
G1 X224.772 Y260.706 E27.06703
G1 X224.607 Y260.713 E27.07472
G1 X223.365 Y260.82 E27.13277
G1 X222.777 Y260.854 E27.16019
G1 X222.458 Y260.863 E27.17505
G1 X222.17 Y260.867 E27.18846
G1 X207.975 Y260.866 E27.84944
G1 X207.277 Y260.857 E27.88195
G1 X206.376 Y260.806 E27.92397
G1 X205.482 Y260.674 E27.96605
G1 X204.604 Y260.465 E28.00807
G1 X203.747 Y260.178 E28.05016
G1 X202.92 Y259.817 E28.09217
G1 X202.127 Y259.384 E28.13425
G1 X201.376 Y258.883 E28.17628
G1 X200.672 Y258.317 E28.21834
G1 X200.021 Y257.691 E28.2604
G1 X199.428 Y257.01 E28.30245
G1 X198.898 Y256.279 E28.34449
G1 X198.434 Y255.504 E28.38655
G1 X198.04 Y254.691 E28.42862
G1 X197.72 Y253.847 E28.47065
G1 X197.476 Y252.977 E28.51272
G1 X197.31 Y252.089 E28.55479
G1 X197.213 Y250.932 E28.60885
G1 X197.204 Y250.597 E28.62446
G1 X197.2 Y250.323 E28.63722
G1 X197.201 Y226.19 E29.76095
G1 X197.211 Y225.492 E29.79345
G1 X197.246 Y224.779 E29.8267
G1 X197.469 Y222.136 E29.9502
G1 X197.612 Y219.64 E30.06662
G1 X197.685 Y217.057 E30.18694
G1 X197.694 Y215.713 E30.24952
G1 X197.694 Y211.805 E30.4315
G1 X197.703 Y211.195 E30.4599
G1 X197.794 Y209.978 E30.51673
G1 X197.85 Y209.564 E30.53618
G1 X198.011 Y208.675 E30.57825
G1 X198.249 Y207.804 E30.6203
G1 X198.564 Y206.957 E30.66238
G1 X198.813 Y206.414 E30.69019
G1 X198.936 Y206.165 E30.70312
G1 X199.371 Y205.373 E30.7452
G1 X199.875 Y204.624 E30.78724
G1 X200.443 Y203.922 E30.82928
G1 X200.791 Y203.548 E30.85307
G1 X201.019 Y203.315 E30.86825
G1 F3600 E25.86825
;MESH:2 ?????????????????? ??????????????.STL(1)
G0 F6000 X210.546 Y209.593
G0 X210.546 Y212.594
G0 X209.479 Y213.661
G0 X209.111 Y211.03
G0 X208.838 Y211.038
G0 X208.664 Y211.32
G0 X208.684 Y219.302
G0 X208.966 Y219.476
G0 X227.775 Y219.465
G0 X227.775 Y234.504
G0 X229.211 Y234.503
G0 X229.211 Y220.704
G0 X242.693 Y220.886
;TYPE:WALL-INNER
G1 F3600 E30.86825
G1 F1200 X229.393 Y220.886 E31.48756
G1 X229.393 Y234.685 E32.13009
G1 X227.792 Y234.686 E32.20464
G1 X227.593 Y234.686 E32.21391
G1 X227.593 Y234.487 E32.21991
G1 X227.593 Y219.647 E32.91092
G1 X208.941 Y219.647 E33.77943
G1 X208.664 Y219.567 E33.79286
G1 X208.521 Y219.37 E33.80419
G1 X208.494 Y219.201 E33.81216
G1 X208.493 Y211.295 E34.1803
G1 X208.573 Y211.018 E34.19373
G1 X208.77 Y210.875 E34.20506
G1 X208.915 Y210.852 E34.2119
G1 X208.94 Y210.848 E34.21308
G1 X209.293 Y210.848 E34.22951
G1 X209.293 Y210.874 E34.23067
G1 X209.293 Y213.847 E34.36911
G1 X230.593 Y213.847 E35.36092
G1 X230.593 Y210.847 E35.50062
G1 X244.493 Y210.847 E36.14786
G1 X244.493 Y234.685 E37.25786
G1 X242.892 Y234.686 E37.3324
G1 X242.693 Y234.686 E37.34167
G1 X242.693 Y234.487 E37.34767
G1 X242.693 Y220.886 E37.98099
G0 F6000 X242.293 Y221.286
;TYPE:WALL-OUTER
G1 F1200 X229.793 Y221.286 E38.56304
G1 X229.793 Y235.085 E39.20558
G1 X227.393 Y235.086 E39.31733
G1 X227.193 Y235.086 E39.32664
G1 X227.193 Y234.886 E39.33267
G1 X227.193 Y220.047 E40.02364
G1 X208.911 Y220.047 E40.87493
G1 X208.645 Y220.005 E40.88747
G1 X208.425 Y219.894 E40.89894
G1 X208.25 Y219.719 E40.91046
G1 X208.136 Y219.497 E40.92209
G1 X208.094 Y219.232 E40.93458
G1 X208.093 Y211.265 E41.30556
G1 X208.135 Y210.999 E41.31809
G1 X208.246 Y210.779 E41.32957
G1 X208.421 Y210.604 E41.34109
G1 X208.643 Y210.49 E41.35271
G1 X208.909 Y210.448 E41.36525
G1 X209.493 Y210.447 E41.39245
G1 X209.693 Y210.447 E41.40176
G1 X209.693 Y210.647 E41.40779
G1 X209.693 Y213.447 E41.53817
G1 X230.193 Y213.447 E42.49274
G1 X230.193 Y210.447 E42.63243
G1 X244.893 Y210.447 E43.31692
