;FLAVOR:Marlin
;TIME:2784
;Filament used: 2.34091m
;Layer height: 0.28
;MINX:196.95
;MINY:194.653
;MINZ:0.28
;MAXX:256.487
;MAXY:257.751
;MAXZ:12.32
;Generated with Creality Slicer 4.8.2-291
M140 S60
M105
M190 S60
M104 S200
M105
M109 S200
M82 ;absolute extrusion mode

G28 ;Home

G92 E0 ;Reset Extruder
G1 Z2.0 F3000 ;Move Z Axis up
G1 X10.1 Y20 Z0.28 F5000.0 ;Move to start position
G1 X10.1 Y200.0 Z0.28 F1500.0 E15 ;Draw the first line
G1 X10.4 Y200.0 Z0.28 F5000.0 ;Move to side a little
G1 X10.4 Y20 Z0.28 F1500.0 E30 ;Draw the second line
G92 E0 ;Reset Extruder
G1 Z2.0 F3000 ;Move Z Axis up

G92 E0
G92 E0
G1 F3600 E-5
;LAYER_COUNT:44
;LAYER:0
M107
G0 F6000 X201.941 Y198.162 Z0.28
;TYPE:SKIRT
G1 F3600 E0
G1 F1200 X202.625 Y197.52 E0.04368
G1 X203.361 Y196.939 E0.08734
G1 X204.144 Y196.422 E0.13103
G1 X204.737 Y196.091 E0.16266
G1 X205.003 Y195.953 E0.17661
G1 X205.854 Y195.557 E0.22032
G1 X206.734 Y195.235 E0.26395
G1 X207.639 Y194.989 E0.30762
G1 X208.226 Y194.872 E0.33549
G1 X208.532 Y194.82 E0.34994
G1 X209.463 Y194.703 E0.39364
G1 X210.031 Y194.67 E0.42013
G1 X210.351 Y194.66 E0.43504
G1 X210.846 Y194.656 E0.45809
G1 X211.43 Y194.664 E0.48528
G1 X212.032 Y194.689 E0.51334
G1 X212.503 Y194.722 E0.53533
G1 X214.662 Y194.903 E0.63621
G1 X217.144 Y195.04 E0.75196
G1 X219.673 Y195.109 E0.86976
G1 X222.192 Y195.105 E0.98706
G1 X224.662 Y195.032 E1.10212
G1 X228.579 Y194.778 E1.2849
G1 X229.453 Y194.703 E1.32574
G1 X230.088 Y194.666 E1.35536
G1 X230.408 Y194.657 E1.37027
G1 X230.717 Y194.653 E1.38466
G1 X244.78 Y194.653 E2.03949
G1 X245.636 Y194.664 E2.07935
G1 X246.572 Y194.718 E2.12301
G1 X247.5 Y194.85 E2.16666
G1 X248.414 Y195.062 E2.21034
G1 X249.306 Y195.351 E2.25401
G1 X250.171 Y195.714 E2.29769
G1 X251.001 Y196.15 E2.34134
G1 X251.792 Y196.655 E2.38504
G1 X252.536 Y197.226 E2.42871
G1 X253.229 Y197.858 E2.47238
G1 X253.866 Y198.546 E2.51604
G1 X254.441 Y199.287 E2.55972
G1 X254.952 Y200.073 E2.60337
G1 X255.394 Y200.901 E2.64708
G1 X255.763 Y201.763 E2.69074
G1 X256.058 Y202.653 E2.7344
G1 X256.276 Y203.565 E2.77806
G1 X256.416 Y204.493 E2.82176
G1 X256.474 Y205.354 E2.86194
G1 X256.483 Y205.674 E2.87685
G1 X256.487 Y205.983 E2.89124
G1 X256.486 Y230.153 E4.0167
G1 X256.475 Y230.863 E4.04976
G1 X256.42 Y231.8 E4.09347
G1 X256.345 Y232.387 E4.12102
G1 X256.11 Y233.885 E4.19163
G1 X256.076 Y234.083 E4.20098
G1 X255.726 Y236.575 E4.31816
G1 X255.443 Y239.098 E4.43638
G1 X255.234 Y241.609 E4.5537
G1 X255.098 Y244.086 E4.66922
G1 X255.051 Y245.716 E4.74515
G1 X255.037 Y246.063 E4.76132
G1 X254.945 Y247.106 E4.81007
G1 X254.885 Y247.546 E4.83075
G1 X254.719 Y248.469 E4.87442
G1 X254.475 Y249.375 E4.91811
G1 X254.154 Y250.256 E4.96177
G1 X253.903 Y250.819 E4.99048
G1 X253.796 Y251.042 E5.00199
G1 X253.355 Y251.869 E5.04563
G1 X252.845 Y252.656 E5.0893
G1 X252.171 Y253.511 E5.14
G1 X252.008 Y253.698 E5.15155
G1 X251.388 Y254.353 E5.19354
G1 X251.313 Y254.426 E5.19842
G1 X250.614 Y255.05 E5.24205
G1 X249.864 Y255.614 E5.28574
G1 X248.773 Y256.272 E5.34507
G1 X248.5 Y256.416 E5.35944
G1 X247.653 Y256.818 E5.4031
G1 X246.774 Y257.146 E5.44679
G1 X245.871 Y257.399 E5.49045
G1 X245.211 Y257.532 E5.5218
G1 X244.905 Y257.584 E5.53626
G1 X243.974 Y257.701 E5.57995
G1 X243.406 Y257.734 E5.60644
G1 X243.086 Y257.744 E5.62135
G1 X242.609 Y257.748 E5.64356
G1 X242.029 Y257.741 E5.67057
G1 X241.383 Y257.714 E5.70068
G1 X240.934 Y257.682 E5.72164
G1 X238.775 Y257.501 E5.82252
G1 X236.293 Y257.364 E5.93827
G1 X233.764 Y257.295 E6.05607
G1 X231.245 Y257.299 E6.17337
G1 X228.775 Y257.372 E6.28843
G1 X224.858 Y257.626 E6.47121
G1 X223.984 Y257.701 E6.51206
G1 X223.349 Y257.738 E6.54167
G1 X223.029 Y257.747 E6.55658
G1 X222.72 Y257.751 E6.57097
G1 X208.499 Y257.75 E7.23316
G1 X207.801 Y257.74 E7.26566
G1 X206.865 Y257.686 E7.30932
G1 X205.937 Y257.554 E7.35297
G1 X205.023 Y257.342 E7.39666
G1 X204.131 Y257.053 E7.44032
G1 X203.266 Y256.69 E7.484
G1 X202.436 Y256.254 E7.52765
G1 X201.645 Y255.749 E7.57135
G1 X200.901 Y255.178 E7.61502
G1 X200.208 Y254.546 E7.6587
G1 X199.571 Y253.858 E7.70236
G1 X198.996 Y253.117 E7.74603
G1 X198.485 Y252.331 E7.78968
G1 X198.043 Y251.503 E7.83339
G1 X197.674 Y250.641 E7.87705
G1 X197.379 Y249.751 E7.92071
G1 X197.161 Y248.839 E7.96437
G1 X197.021 Y247.911 E8.00807
G1 X196.963 Y247.037 E8.04886
G1 X196.954 Y246.703 E8.06442
G1 X196.95 Y246.407 E8.0782
G1 X196.951 Y222.25 E9.20305
G1 X196.962 Y221.54 E9.23612
G1 X197.017 Y220.603 E9.27982
G1 X197.092 Y220.016 E9.30738
G1 X197.327 Y218.518 E9.37798
G1 X197.361 Y218.32 E9.38734
G1 X197.711 Y215.828 E9.50452
G1 X197.994 Y213.305 E9.62273
G1 X198.203 Y210.794 E9.74006
G1 X198.339 Y208.316 E9.85562
G1 X198.381 Y206.816 E9.92549
G1 X198.401 Y206.326 E9.94833
G1 X198.492 Y205.297 E9.99643
G1 X198.553 Y204.85 E10.01744
G1 X198.719 Y203.927 E10.06111
G1 X198.964 Y203.021 E10.10481
G1 X199.284 Y202.14 E10.14846
G1 X199.59 Y201.465 E10.18296
G1 X199.713 Y201.216 E10.1959
G1 X200.163 Y200.394 E10.23953
G1 X200.683 Y199.613 E10.28322
G1 X201.267 Y198.879 E10.3269
G1 X201.713 Y198.395 E10.35755
G1 X201.941 Y198.162 E10.37273
G0 F6000 X202.227 Y198.441
G1 F1200 X202.899 Y197.812 E10.41559
G1 X203.623 Y197.243 E10.45846
G1 X204.393 Y196.739 E10.50132
G1 X204.922 Y196.446 E10.52947
G1 X205.188 Y196.308 E10.54343
G1 X206.022 Y195.92 E10.58626
G1 X206.888 Y195.606 E10.62915
G1 X207.777 Y195.368 E10.67201
G1 X208.293 Y195.267 E10.69649
G1 X208.599 Y195.215 E10.71094
G1 X209.513 Y195.1 E10.75384
G1 X210.044 Y195.07 E10.7786
G1 X210.364 Y195.06 E10.79351
G1 X210.84 Y195.056 E10.81568
G1 X211.424 Y195.064 E10.84287
G1 X212.005 Y195.088 E10.86995
G1 X212.469 Y195.121 E10.89161
G1 X214.605 Y195.3 E10.99142
G1 X217.146 Y195.44 E11.10992
G1 X219.663 Y195.509 E11.22716
G1 X222.205 Y195.505 E11.34553
G1 X224.672 Y195.432 E11.46045
G1 X228.591 Y195.178 E11.64332
G1 X229.487 Y195.101 E11.6852
G1 X230.099 Y195.066 E11.71374
G1 X230.419 Y195.057 E11.72865
G1 X230.717 Y195.053 E11.74252
G1 X244.78 Y195.053 E12.39736
G1 X245.63 Y195.064 E12.43694
G1 X246.549 Y195.117 E12.4798
G1 X247.46 Y195.25 E12.52267
G1 X248.356 Y195.461 E12.56554
G1 X249.23 Y195.749 E12.60839
G1 X250.077 Y196.112 E12.65129
G1 X250.888 Y196.547 E12.69415
G1 X251.658 Y197.051 E12.737
G1 X252.382 Y197.62 E12.77988
G1 X253.054 Y198.25 E12.82277
G1 X253.669 Y198.935 E12.86564
G1 X254.222 Y199.671 E12.9085
G1 X254.709 Y200.452 E12.95136
G1 X255.126 Y201.273 E12.99424
G1 X255.471 Y202.127 E13.03713
G1 X255.74 Y203.007 E13.07997
G1 X255.932 Y203.908 E13.12287
G1 X256.045 Y204.821 E13.16571
G1 X256.074 Y205.365 E13.19107
G1 X256.083 Y205.685 E13.20598
G1 X256.087 Y205.983 E13.21986
G1 X256.086 Y230.147 E14.34504
G1 X256.075 Y230.857 E14.3781
G1 X256.021 Y231.776 E14.42097
G1 X255.95 Y232.325 E14.44674
G1 X255.716 Y233.818 E14.51711
G1 X255.68 Y234.027 E14.52699
G1 X255.325 Y236.551 E14.64567
G1 X255.045 Y239.053 E14.7629
G1 X254.836 Y241.555 E14.87981
G1 X254.697 Y244.09 E14.99803
G1 X254.651 Y245.7 E15.07303
G1 X254.637 Y246.047 E15.0892
G1 X254.549 Y247.052 E15.13618
G1 X254.489 Y247.492 E15.15685
G1 X254.325 Y248.398 E15.19973
G1 X254.083 Y249.286 E15.24258
G1 X253.765 Y250.15 E15.28545
G1 X253.543 Y250.646 E15.31076
G1 X253.436 Y250.869 E15.32227
G1 X253.002 Y251.681 E15.36515
G1 X252.499 Y252.452 E15.40801
G1 X251.87 Y253.248 E15.45525
G1 X251.707 Y253.435 E15.4668
G1 X251.109 Y254.066 E15.50728
G1 X251.034 Y254.139 E15.51216
G1 X250.347 Y254.752 E15.55503
G1 X249.61 Y255.303 E15.59788
G1 X248.586 Y255.919 E15.65352
G1 X248.313 Y256.063 E15.66789
G1 X247.481 Y256.456 E15.71074
G1 X246.618 Y256.776 E15.7536
G1 X245.73 Y257.02 E15.79648
G1 X245.144 Y257.137 E15.82431
G1 X244.838 Y257.189 E15.83876
G1 X243.924 Y257.304 E15.88165
G1 X243.393 Y257.334 E15.90642
G1 X243.073 Y257.344 E15.92133
G1 X242.614 Y257.348 E15.9427
G1 X242.034 Y257.341 E15.96971
G1 X241.412 Y257.315 E15.9987
G1 X240.968 Y257.283 E16.01943
G1 X238.832 Y257.104 E16.11924
G1 X236.291 Y256.964 E16.23774
G1 X233.774 Y256.895 E16.35498
G1 X231.232 Y256.899 E16.47335
G1 X228.765 Y256.972 E16.58827
G1 X224.846 Y257.226 E16.77114
G1 X223.95 Y257.303 E16.81301
G1 X223.338 Y257.338 E16.84156
G1 X223.018 Y257.347 E16.85647
G1 X222.72 Y257.351 E16.87034
G1 X208.505 Y257.35 E17.53225
G1 X207.807 Y257.34 E17.56476
G1 X206.888 Y257.287 E17.60762
G1 X205.977 Y257.154 E17.65049
G1 X205.081 Y256.943 E17.69335
G1 X204.207 Y256.655 E17.7362
G1 X203.36 Y256.292 E17.77911
G1 X202.549 Y255.857 E17.82197
G1 X201.779 Y255.353 E17.86482
G1 X201.055 Y254.784 E17.9077
G1 X200.383 Y254.154 E17.95059
G1 X199.768 Y253.469 E17.99345
G1 X199.215 Y252.733 E18.03632
G1 X198.728 Y251.952 E18.07918
G1 X198.311 Y251.131 E18.12206
G1 X197.966 Y250.277 E18.16494
G1 X197.697 Y249.397 E18.20779
G1 X197.505 Y248.496 E18.25069
G1 X197.392 Y247.583 E18.29353
G1 X197.363 Y247.027 E18.31945
G1 X197.354 Y246.693 E18.33501
G1 X197.35 Y246.407 E18.34833
G1 X197.351 Y222.256 E19.4729
G1 X197.362 Y221.546 E19.50596
G1 X197.416 Y220.627 E19.54883
G1 X197.487 Y220.078 E19.57461
G1 X197.721 Y218.585 E19.64498
G1 X197.757 Y218.376 E19.65485
G1 X198.112 Y215.852 E19.77354
G1 X198.392 Y213.35 E19.89077
G1 X198.601 Y210.848 E20.00768
G1 X198.74 Y208.312 E20.12594
G1 X198.786 Y206.679 E20.20201
G1 X198.8 Y206.343 E20.21767
G1 X198.888 Y205.351 E20.26404
G1 X198.949 Y204.904 E20.28505
G1 X199.113 Y203.998 E20.32792
G1 X199.355 Y203.11 E20.37078
G1 X199.673 Y202.246 E20.41365
G1 X199.948 Y201.642 E20.44455
G1 X200.071 Y201.393 E20.45748
G1 X200.514 Y200.586 E20.50035
G1 X201.026 Y199.821 E20.54321
G1 X201.602 Y199.103 E20.58607
G1 X201.999 Y198.674 E20.61329
G1 X202.227 Y198.441 E20.62847
G0 F6000 X202.513 Y198.721
G1 F1200 X203.172 Y198.104 E20.67051
G1 X203.884 Y197.548 E20.71257
G1 X204.642 Y197.057 E20.75463
G1 X205.106 Y196.801 E20.7793
G1 X205.372 Y196.663 E20.79326
G1 X206.191 Y196.283 E20.8353
G1 X207.041 Y195.977 E20.87736
G1 X207.914 Y195.747 E20.9194
G1 X208.36 Y195.661 E20.94055
G1 X208.666 Y195.609 E20.955
G1 X209.562 Y195.497 E20.99705
G1 X210.056 Y195.47 E21.02009
G1 X210.376 Y195.46 E21.03499
G1 X210.835 Y195.456 E21.05637
G1 X211.419 Y195.464 E21.08356
G1 X211.977 Y195.487 E21.10957
G1 X212.436 Y195.52 E21.131
G1 X214.585 Y195.7 E21.23141
G1 X217.114 Y195.84 E21.34936
G1 X219.653 Y195.909 E21.46763
G1 X222.182 Y195.905 E21.58539
G1 X224.709 Y195.83 E21.70311
G1 X228.653 Y195.575 E21.88714
G1 X229.522 Y195.5 E21.92775
G1 X230.11 Y195.466 E21.95518
G1 X230.43 Y195.457 E21.97009
G1 X230.717 Y195.453 E21.98345
G1 X244.78 Y195.453 E22.63828
G1 X245.624 Y195.464 E22.67759
G1 X246.526 Y195.517 E22.71966
G1 X247.419 Y195.649 E22.76169
G1 X248.297 Y195.86 E22.80374
G1 X249.153 Y196.148 E22.8458
G1 X249.98 Y196.51 E22.88783
G1 X250.772 Y196.945 E22.92991
G1 X251.523 Y197.447 E22.97197
G1 X252.226 Y198.014 E23.01402
G1 X252.876 Y198.641 E23.05608
G1 X253.468 Y199.323 E23.09813
G1 X253.998 Y200.054 E23.14017
G1 X254.46 Y200.83 E23.18223
G1 X254.853 Y201.643 E23.22427
G1 X255.171 Y202.488 E23.26631
G1 X255.414 Y203.358 E23.30838
G1 X255.579 Y204.246 E23.35043
G1 X255.674 Y205.376 E23.40324
G1 X255.683 Y205.696 E23.41814
G1 X255.687 Y205.983 E23.43151
G1 X255.686 Y230.141 E24.55641
G1 X255.675 Y230.851 E24.58947
G1 X255.621 Y231.753 E24.63155
G1 X255.554 Y232.264 E24.65554
G1 X255.322 Y233.751 E24.72562
G1 X255.284 Y233.975 E24.7362
G1 X254.931 Y236.483 E24.85414
G1 X254.648 Y239.012 E24.97263
G1 X254.437 Y241.536 E25.09057
G1 X254.297 Y244.093 E25.20981
G1 X254.252 Y245.684 E25.28393
G1 X254.238 Y246.031 E25.3001
G1 X254.152 Y246.998 E25.3453
G1 X254.092 Y247.438 E25.36598
G1 X253.931 Y248.327 E25.40805
G1 X253.691 Y249.197 E25.45007
G1 X253.376 Y250.044 E25.49215
G1 X253.182 Y250.473 E25.51408
G1 X253.075 Y250.696 E25.52559
G1 X252.649 Y251.492 E25.56763
G1 X252.154 Y252.247 E25.60967
G1 X251.568 Y252.985 E25.65355
G1 X251.405 Y253.172 E25.6651
G1 X250.83 Y253.779 E25.70403
G1 X250.755 Y253.852 E25.70891
G1 X250.081 Y254.453 E25.75096
G1 X249.356 Y254.992 E25.79302
G1 X248.4 Y255.565 E25.84492
G1 X248.127 Y255.709 E25.85929
G1 X247.31 Y256.094 E25.90135
G1 X246.463 Y256.406 E25.94338
G1 X245.591 Y256.642 E25.98545
G1 X245.077 Y256.743 E26.00984
G1 X244.771 Y256.795 E26.02429
G1 X243.875 Y256.907 E26.06634
G1 X243.381 Y256.934 E26.08937
G1 X243.061 Y256.944 E26.10428
G1 X242.619 Y256.948 E26.12486
G1 X242.039 Y256.941 E26.15187
G1 X241.44 Y256.916 E26.17979
G1 X241.001 Y256.884 E26.20028
G1 X238.852 Y256.704 E26.3007
G1 X236.323 Y256.564 E26.41864
G1 X233.784 Y256.495 E26.53691
G1 X231.255 Y256.499 E26.65467
G1 X228.728 Y256.574 E26.77239
G1 X224.784 Y256.829 E26.95643
G1 X223.915 Y256.904 E26.99704
G1 X223.327 Y256.938 E27.02447
G1 X223.007 Y256.947 E27.03937
G1 X222.72 Y256.951 E27.05274
G1 X208.511 Y256.95 E27.71437
G1 X207.813 Y256.94 E27.74687
G1 X206.911 Y256.887 E27.78895
G1 X206.018 Y256.755 E27.83098
G1 X205.14 Y256.544 E27.87303
G1 X204.284 Y256.256 E27.91508
G1 X203.457 Y255.894 E27.95712
G1 X202.665 Y255.459 E27.99919
G1 X201.914 Y254.957 E28.04126
G1 X201.211 Y254.39 E28.08331
G1 X200.561 Y253.763 E28.12536
G1 X199.969 Y253.081 E28.16742
G1 X199.439 Y252.35 E28.20946
G1 X198.977 Y251.574 E28.25151
G1 X198.584 Y250.761 E28.29356
G1 X198.266 Y249.916 E28.3356
G1 X198.023 Y249.046 E28.37766
G1 X197.858 Y248.158 E28.41972
G1 X197.763 Y247.016 E28.47308
G1 X197.754 Y246.682 E28.48864
G1 X197.75 Y246.407 E28.50144
G1 X197.751 Y222.262 E29.62574
G1 X197.762 Y221.552 E29.6588
G1 X197.816 Y220.65 E29.70088
G1 X197.883 Y220.139 E29.72488
G1 X198.115 Y218.652 E29.79495
G1 X198.153 Y218.428 E29.80553
G1 X198.506 Y215.92 E29.92347
G1 X198.789 Y213.391 E30.04196
G1 X199 Y210.867 E30.1599
G1 X199.14 Y208.309 E30.27919
G1 X199.186 Y206.695 E30.35438
G1 X199.2 Y206.359 E30.37003
G1 X199.285 Y205.405 E30.41463
G1 X199.346 Y204.958 E30.43564
G1 X199.507 Y204.069 E30.47771
G1 X199.747 Y203.199 E30.51973
G1 X200.062 Y202.352 E30.56181
G1 X200.307 Y201.82 E30.58908
G1 X200.43 Y201.571 E30.60202
G1 X200.865 Y200.779 E30.64409
G1 X201.369 Y200.03 E30.68613
G1 X201.937 Y199.328 E30.72818
G1 X202.285 Y198.954 E30.75197
G1 X202.513 Y198.721 E30.76715
G1 F3600 E25.76715
;MESH:2 ?????????????????? ??????????????.STL(1)
G0 F6000 X211.94 Y204.999
G0 X211.94 Y208
G0 X210.873 Y209.067
G0 X210.505 Y206.436
G0 X210.217 Y206.529
G0 X210.178 Y214.708
G0 X210.46 Y214.882
G0 X228.169 Y214.871
G0 X228.169 Y229.909
G0 X229.605 Y229.908
G0 X229.605 Y216.109
G0 X243.087 Y216.291
;TYPE:WALL-INNER
G1 F3600 E30.76715
G1 F1200 X229.787 Y216.291 E31.38645
G1 X229.787 Y230.09 E32.02899
G1 X228.186 Y230.091 E32.10354
G1 X227.987 Y230.091 E32.1128
G1 X227.987 Y229.892 E32.1188
G1 X227.987 Y215.053 E32.80976
G1 X210.435 Y215.053 E33.62706
G1 X210.158 Y214.973 E33.64048
G1 X210.015 Y214.776 E33.65182
G1 X209.988 Y214.607 E33.65979
G1 X209.987 Y206.701 E34.02793
G1 X210.067 Y206.424 E34.04135
G1 X210.264 Y206.281 E34.05269
G1 X210.35 Y206.267 E34.05674
G1 X210.434 Y206.254 E34.0607
G1 X210.687 Y206.254 E34.07248
G1 X210.687 Y206.339 E34.07589
G1 X210.687 Y209.253 E34.21158
G1 X230.987 Y209.253 E35.15683
G1 X230.987 Y206.253 E35.29652
G1 X244.887 Y206.253 E35.94377
G1 X244.887 Y230.09 E37.05372
G1 X243.286 Y230.091 E37.12827
G1 X243.087 Y230.091 E37.13753
G1 X243.087 Y229.892 E37.14353
G1 X243.087 Y216.291 E37.77685
G0 F6000 X242.687 Y216.691
;TYPE:WALL-OUTER
G1 F1200 X230.187 Y216.691 E38.3589
G1 X230.187 Y230.49 E39.00144
G1 X227.787 Y230.491 E39.11319
G1 X227.587 Y230.491 E39.12251
G1 X227.587 Y230.291 E39.12854
G1 X227.587 Y215.453 E39.81946
G1 X210.405 Y215.453 E40.61952
G1 X210.139 Y215.411 E40.63206
G1 X209.919 Y215.3 E40.64353
G1 X209.744 Y215.125 E40.65506
G1 X209.63 Y214.903 E40.66668
G1 X209.588 Y214.638 E40.67917
G1 X209.587 Y206.671 E41.05015
G1 X209.629 Y206.405 E41.06269
G1 X209.74 Y206.185 E41.07416
G1 X209.915 Y206.01 E41.08569
G1 X210.137 Y205.896 E41.09731
G1 X210.403 Y205.854 E41.10985
G1 X210.887 Y205.853 E41.13238
G1 X211.087 Y205.853 E41.1417
G1 X211.087 Y206.053 E41.14773
G1 X211.087 Y208.853 E41.27811
G1 X230.587 Y208.853 E42.18611
G1 X230.587 Y205.853 E42.3258
G1 X245.287 Y205.853 E43.0103
